;FLAVOR:Marlin
;TIME:3965
;Filament used: 3.99242m, 0m
;Layer height: 0.2
;Generated with Cura_SteamEngine master
T0
M140 S55
M105
M190 S55
M104 S210
M105
M109 S210
M82 ;absolute extrusion mode
; Custom Start G-code
M80 192.168.1.27 1
G28 ; Home all axes
G92 E0 ; Reset Extruder
G92 E0
G1 F2700 E-6
;LAYER_COUNT:311
;LAYER:0
M107
M205 X15 Y15
G0 F3000 X74.808 Y86.825 Z0.16
M205 X10 Y10
;TYPE:SKIRT
G1 F2700 E0
G1 F600 X75.263 Y86.445 E0.01577
G1 X75.766 Y86.131 E0.03155
G1 X76.306 Y85.886 E0.04733
G1 X76.875 Y85.717 E0.06312
G1 X77.46 Y85.626 E0.07888
G1 X77.844 Y85.609 E0.0891
G1 X117.872 Y85.61 E1.15417
G1 X118.464 Y85.65 E1.16996
G1 X119.045 Y85.769 E1.18574
G1 X119.604 Y85.965 E1.2015
G1 X120.132 Y86.235 E1.21728
G1 X120.619 Y86.573 E1.23306
G1 X121.056 Y86.974 E1.24884
G1 X121.436 Y87.429 E1.26461
G1 X121.75 Y87.932 E1.28039
G1 X121.995 Y88.472 E1.29617
G1 X122.164 Y89.041 E1.31196
G1 X122.255 Y89.627 E1.32774
G1 X122.272 Y90.015 E1.33807
G1 X122.224 Y129.996 E2.40189
G1 X122.183 Y130.588 E2.41768
G1 X122.063 Y131.169 E2.43347
G1 X121.867 Y131.728 E2.44923
G1 X121.596 Y132.256 E2.46502
G1 X121.258 Y132.742 E2.48077
G1 X120.857 Y133.179 E2.49655
G1 X120.4 Y133.558 E2.51235
G1 X119.897 Y133.872 E2.52813
G1 X119.357 Y134.115 E2.54388
G1 X118.788 Y134.284 E2.55968
G1 X118.202 Y134.375 E2.57546
G1 X117.824 Y134.391 E2.58552
G1 X77.844 Y134.391 E3.64932
G1 X77.252 Y134.351 E3.6651
G1 X76.672 Y134.232 E3.68086
G1 X76.112 Y134.036 E3.69665
G1 X75.584 Y133.766 E3.71243
G1 X75.097 Y133.428 E3.7282
G1 X74.66 Y133.027 E3.74398
G1 X74.28 Y132.572 E3.75975
G1 X73.966 Y132.069 E3.77553
G1 X73.721 Y131.529 E3.79131
G1 X73.552 Y130.96 E3.8071
G1 X73.461 Y130.375 E3.82286
G1 X73.444 Y129.991 E3.83308
G1 X73.444 Y90.009 E4.89693
G1 X73.484 Y89.417 E4.91272
G1 X73.603 Y88.837 E4.92847
G1 X73.799 Y88.277 E4.94426
G1 X74.069 Y87.749 E4.96004
G1 X74.407 Y87.262 E4.97581
G1 X74.808 Y86.825 E4.99159
M205 X15 Y15
G0 F3000 X75.2 Y87.007
M205 X10 Y10
G1 F600 X75.65 Y86.665 E5.00663
G1 X76.143 Y86.389 E5.02166
G1 X76.671 Y86.185 E5.03673
G1 X77.221 Y86.058 E5.05175
G1 X77.844 Y86.009 E5.06837
G1 X117.872 Y86.01 E6.13344
G1 X118.436 Y86.05 E6.14849
G1 X118.989 Y86.169 E6.16354
G1 X119.519 Y86.365 E6.17857
G1 X120.016 Y86.633 E6.1936
G1 X120.471 Y86.969 E6.20865
G1 X120.874 Y87.366 E6.2237
G1 X121.217 Y87.816 E6.23876
G1 X121.492 Y88.309 E6.25378
G1 X121.696 Y88.837 E6.26884
G1 X121.823 Y89.387 E6.28386
G1 X121.872 Y90.015 E6.30062
G1 X121.824 Y129.996 E7.36444
G1 X121.783 Y130.56 E7.37948
G1 X121.664 Y131.112 E7.39451
G1 X121.467 Y131.642 E7.40955
G1 X121.198 Y132.139 E7.42459
G1 X120.861 Y132.594 E7.43966
G1 X120.464 Y132.996 E7.45469
G1 X120.014 Y133.338 E7.46973
G1 X119.52 Y133.613 E7.48477
G1 X118.993 Y133.816 E7.4998
G1 X118.442 Y133.943 E7.51485
G1 X117.824 Y133.991 E7.53134
G1 X77.844 Y133.991 E8.59513
G1 X77.28 Y133.951 E8.61018
G1 X76.727 Y133.832 E8.62523
G1 X76.197 Y133.636 E8.64026
G1 X75.7 Y133.368 E8.65529
G1 X75.245 Y133.032 E8.67034
G1 X74.842 Y132.635 E8.68539
G1 X74.5 Y132.185 E8.70043
G1 X74.224 Y131.692 E8.71546
G1 X74.02 Y131.164 E8.73052
G1 X73.893 Y130.614 E8.74554
G1 X73.844 Y129.991 E8.76217
G1 X73.844 Y90.009 E9.82602
G1 X73.884 Y89.445 E9.84106
G1 X74.003 Y88.892 E9.85611
G1 X74.199 Y88.362 E9.87115
G1 X74.467 Y87.865 E9.88617
G1 X74.803 Y87.41 E9.90122
G1 X75.2 Y87.007 E9.91627
M205 X15 Y15
G0 F3000 X75.199 Y87.567
M205 X10 Y10
G1 F600 X75.591 Y87.201 E9.93054
G1 X76.033 Y86.898 E9.9448
G1 X76.516 Y86.663 E9.9591
G1 X77.027 Y86.503 E9.97334
G1 X77.557 Y86.42 E9.98762
G1 X77.844 Y86.409 E9.99526
G1 X117.872 Y86.41 E11.06033
G1 X118.407 Y86.45 E11.0746
G1 X118.93 Y86.569 E11.08888
G1 X119.429 Y86.764 E11.10313
G1 X119.894 Y87.032 E11.11741
G1 X120.314 Y87.365 E11.13167
G1 X120.68 Y87.757 E11.14594
G1 X120.983 Y88.199 E11.1602
G1 X121.218 Y88.682 E11.17449
G1 X121.378 Y89.193 E11.18874
G1 X121.461 Y89.723 E11.20302
G1 X121.472 Y90.014 E11.21076
G1 X121.424 Y129.995 E12.27458
G1 X121.383 Y130.53 E12.28886
G1 X121.264 Y131.053 E12.30313
G1 X121.068 Y131.552 E12.3174
G1 X120.8 Y132.017 E12.33168
G1 X120.466 Y132.436 E12.34594
G1 X120.074 Y132.802 E12.36021
G1 X119.631 Y133.105 E12.37449
G1 X119.148 Y133.339 E12.38877
G1 X118.636 Y133.498 E12.40303
G1 X118.106 Y133.58 E12.4173
G1 X117.824 Y133.591 E12.42481
G1 X77.844 Y133.591 E13.4886
G1 X77.309 Y133.551 E13.50288
G1 X76.786 Y133.432 E13.51715
G1 X76.287 Y133.237 E13.53141
G1 X75.822 Y132.969 E13.54569
G1 X75.402 Y132.636 E13.55995
G1 X75.036 Y132.244 E13.57422
G1 X74.733 Y131.802 E13.58848
G1 X74.498 Y131.319 E13.60277
G1 X74.338 Y130.808 E13.61702
G1 X74.255 Y130.278 E13.63129
G1 X74.244 Y129.991 E13.63893
G1 X74.244 Y90.009 E14.70278
G1 X74.284 Y89.474 E14.71705
G1 X74.403 Y88.951 E14.73133
G1 X74.598 Y88.452 E14.74558
G1 X74.866 Y87.987 E14.75986
G1 X75.199 Y87.567 E14.77412
M205 X15 Y15
G0 F3000 X75.593 Y87.734
M205 X10 Y10
G1 F600 X75.98 Y87.408 E14.78759
G1 X76.413 Y87.147 E14.80104
G1 X76.881 Y86.957 E14.81448
G1 X77.374 Y86.844 E14.82794
G1 X77.844 Y86.809 E14.84048
G1 X117.872 Y86.81 E15.90555
G1 X118.376 Y86.85 E15.919
G1 X118.867 Y86.969 E15.93244
G1 X119.334 Y87.164 E15.94591
G1 X119.764 Y87.429 E15.95935
G1 X120.147 Y87.76 E15.97282
G1 X120.473 Y88.146 E15.98626
G1 X120.734 Y88.579 E15.99971
G1 X120.924 Y89.047 E16.01315
G1 X121.037 Y89.54 E16.02661
G1 X121.072 Y90.014 E16.03926
G1 X121.024 Y129.995 E17.10308
G1 X120.983 Y130.499 E17.11653
G1 X120.864 Y130.99 E17.12997
G1 X120.669 Y131.456 E17.14342
G1 X120.402 Y131.886 E17.15688
G1 X120.072 Y132.269 E17.17034
G1 X119.685 Y132.594 E17.18378
G1 X119.252 Y132.855 E17.19723
G1 X118.783 Y133.044 E17.21069
G1 X118.29 Y133.157 E17.22415
G1 X117.824 Y133.191 E17.23658
G1 X77.844 Y133.191 E18.30037
G1 X77.34 Y133.151 E18.31382
G1 X76.849 Y133.032 E18.32727
G1 X76.382 Y132.838 E18.34072
G1 X75.952 Y132.572 E18.35418
G1 X75.569 Y132.242 E18.36763
G1 X75.243 Y131.855 E18.38109
G1 X74.982 Y131.422 E18.39454
G1 X74.792 Y130.954 E18.40798
G1 X74.679 Y130.461 E18.42144
G1 X74.644 Y129.991 E18.43398
G1 X74.644 Y90.009 E19.49783
G1 X74.684 Y89.505 E19.51128
G1 X74.803 Y89.014 E19.52472
G1 X74.997 Y88.547 E19.53818
G1 X75.263 Y88.117 E19.55163
G1 X75.593 Y87.734 E19.56508
M205 X15 Y15
G1 F2700 E13.56508
;MESH:A10_A10M_Angled_LCD_Mount_Bracket_v2.stl
G0 F3000 X78.449 Y88.96
G0 X78.449 Y90.614
G0 X85.576 Y102.054
G0 X106.217 Y122.762
G0 X106.275 Y122.682
M205 X10 Y10
;TYPE:WALL-INNER
G1 F2700 E19.56508
G1 F600 X106.637 Y122.867 E19.5759
G1 X106.871 Y122.953 E19.58254
G1 X107.061 Y123.01 E19.58781
G1 X107.255 Y123.051 E19.59309
G1 X107.445 Y123.081 E19.59821
G1 X107.637 Y123.1 E19.60334
G1 X107.835 Y123.106 E19.60861
G1 X108.041 Y123.1 E19.6141
G1 X108.407 Y123.054 E19.62391
G1 X108.617 Y123.007 E19.62964
G1 X108.979 Y122.89 E19.63976
G1 X109.325 Y122.728 E19.64993
G1 X109.5 Y122.624 E19.65534
G1 X109.669 Y122.508 E19.6608
G1 X109.963 Y122.266 E19.67093
G1 X110.221 Y121.988 E19.68102
G1 X110.354 Y121.822 E19.68668
G1 X110.556 Y121.5 E19.69679
G1 X110.674 Y121.258 E19.70396
G1 X110.767 Y121.026 E19.71061
G1 X110.845 Y120.767 E19.71781
G1 X110.906 Y120.461 E19.72611
G1 X110.934 Y120.194 E19.73325
G1 X110.94 Y119.988 E19.73873
G1 X110.925 Y119.687 E19.74675
G1 X110.889 Y119.42 E19.75392
G1 X110.787 Y119.036 E19.76449
G1 X110.715 Y118.839 E19.77007
G1 X110.613 Y118.616 E19.7766
G1 X110.522 Y118.446 E19.78173
G1 X110.419 Y118.278 E19.78697
G1 X110.274 Y118.076 E19.79359
G1 X110.116 Y117.892 E19.80004
G1 X109.961 Y117.735 E19.80591
G1 X109.791 Y117.587 E19.81191
G1 X109.628 Y117.466 E19.81731
G1 X109.395 Y117.315 E19.8247
G1 X109.162 Y117.192 E19.83171
G1 X108.976 Y117.111 E19.83711
G1 X108.755 Y117.034 E19.84334
G1 X108.559 Y116.979 E19.84875
G1 X108.295 Y116.928 E19.85591
G1 X108.029 Y116.9 E19.86302
G1 X107.774 Y116.896 E19.86981
G1 X107.518 Y116.911 E19.87663
G1 X107.252 Y116.949 E19.88378
G1 X106.978 Y117.015 E19.89128
G1 X106.579 Y117.158 E19.90256
G1 X106.235 Y117.335 E19.91285
G1 X106.062 Y117.45 E19.91838
G1 X105.839 Y117.618 E19.92581
G1 X105.677 Y117.785 E19.932
G1 X105.49 Y118.02 E19.93999
G1 X105.381 Y118.177 E19.94508
G1 X105.26 Y118.383 E19.95143
G1 X105.159 Y118.592 E19.95761
G1 X105.082 Y118.791 E19.96329
G1 X105.014 Y119.004 E19.96924
G1 X104.917 Y119.461 E19.98167
G1 X104.888 Y119.659 E19.98699
G1 X104.872 Y119.86 E19.99236
G1 X104.87 Y120.062 E19.99773
G1 X104.881 Y120.263 E20.00309
G1 X104.906 Y120.464 E20.00848
G1 X104.944 Y120.661 E20.01382
G1 X104.995 Y120.859 E20.01926
G1 X105.08 Y121.106 E20.02621
G1 X105.227 Y121.413 E20.03527
G1 X105.388 Y121.707 E20.04418
G1 X105.49 Y121.868 E20.04926
G1 X105.607 Y122.029 E20.05455
G1 X105.85 Y122.301 E20.06426
G1 X106.002 Y122.442 E20.06977
G1 X106.155 Y122.563 E20.07496
G1 X106.275 Y122.682 E20.07946
M205 X15 Y15
G0 F3000 X106.512 Y122.354
M205 X10 Y10
;TYPE:WALL-OUTER
G1 F600 X106.797 Y122.5 E20.08798
G1 X106.997 Y122.573 E20.09364
G1 X107.161 Y122.622 E20.0982
G1 X107.328 Y122.658 E20.10274
G1 X107.496 Y122.684 E20.10727
G1 X107.663 Y122.701 E20.11173
G1 X107.835 Y122.706 E20.11631
G1 X108.01 Y122.701 E20.12097
G1 X108.339 Y122.659 E20.1298
G1 X108.512 Y122.621 E20.13451
G1 X108.832 Y122.517 E20.14346
G1 X109.137 Y122.374 E20.15243
G1 X109.285 Y122.286 E20.15701
G1 X109.429 Y122.188 E20.16164
G1 X109.688 Y121.974 E20.17058
G1 X109.918 Y121.727 E20.17956
G1 X110.027 Y121.59 E20.18422
G1 X110.206 Y121.305 E20.19318
G1 X110.308 Y121.096 E20.19936
G1 X110.389 Y120.894 E20.20515
G1 X110.456 Y120.67 E20.21138
G1 X110.51 Y120.4 E20.2187
G1 X110.535 Y120.167 E20.22494
G1 X110.54 Y119.993 E20.22957
G1 X110.526 Y119.724 E20.23674
G1 X110.496 Y119.498 E20.2428
G1 X110.405 Y119.156 E20.25222
G1 X110.345 Y118.991 E20.25689
G1 X110.255 Y118.794 E20.26265
G1 X110.175 Y118.645 E20.26715
G1 X110.086 Y118.5 E20.27168
G1 X109.959 Y118.323 E20.27748
G1 X109.822 Y118.163 E20.28308
G1 X109.687 Y118.027 E20.28818
G1 X109.54 Y117.899 E20.29337
G1 X109.4 Y117.795 E20.29801
G1 X109.192 Y117.66 E20.30461
G1 X108.989 Y117.553 E20.31071
G1 X108.83 Y117.484 E20.31532
G1 X108.635 Y117.416 E20.32082
G1 X108.467 Y117.369 E20.32546
G1 X108.236 Y117.324 E20.33172
G1 X108.005 Y117.3 E20.3379
G1 X107.782 Y117.296 E20.34384
G1 X107.558 Y117.309 E20.34981
G1 X107.328 Y117.342 E20.35599
G1 X107.093 Y117.399 E20.36242
G1 X106.739 Y117.526 E20.37243
G1 X106.438 Y117.681 E20.38144
G1 X106.293 Y117.777 E20.38607
G1 X106.105 Y117.919 E20.39233
G1 X105.978 Y118.05 E20.39719
G1 X105.811 Y118.259 E20.40431
G1 X105.718 Y118.393 E20.40865
G1 X105.613 Y118.572 E20.41417
G1 X105.526 Y118.752 E20.41949
G1 X105.459 Y118.924 E20.4244
G1 X105.401 Y119.106 E20.42948
G1 X105.311 Y119.531 E20.44104
G1 X105.286 Y119.704 E20.44569
G1 X105.272 Y119.878 E20.45034
G1 X105.27 Y120.053 E20.455
G1 X105.28 Y120.228 E20.45966
G1 X105.301 Y120.402 E20.46432
G1 X105.334 Y120.573 E20.46896
G1 X105.378 Y120.743 E20.47363
G1 X105.451 Y120.954 E20.47957
G1 X105.583 Y121.231 E20.48773
G1 X105.733 Y121.504 E20.49602
G1 X105.821 Y121.643 E20.5004
G1 X105.919 Y121.778 E20.50484
G1 X106.136 Y122.021 E20.51351
G1 X106.262 Y122.138 E20.51808
G1 X106.416 Y122.259 E20.52329
G1 X106.512 Y122.354 E20.52689
M205 X15 Y15
G0 F3000 X106.69 Y122.445
G0 X106.49 Y122.836
G0 X106.462 Y122.889
G0 X87.44 Y123.12
G0 X87.208 Y123.059
G0 X86.217 Y122.762
G0 X86.275 Y122.682
M205 X10 Y10
;TYPE:WALL-INNER
G1 F600 X86.637 Y122.867 E20.5377
G1 X86.871 Y122.953 E20.54434
G1 X87.061 Y123.01 E20.54962
G1 X87.255 Y123.051 E20.55489
G1 X87.445 Y123.081 E20.56001
G1 X87.637 Y123.1 E20.56514
G1 X87.835 Y123.106 E20.57041
G1 X88.041 Y123.1 E20.5759
G1 X88.407 Y123.054 E20.58571
G1 X88.617 Y123.007 E20.59144
G1 X88.979 Y122.89 E20.60156
G1 X89.325 Y122.728 E20.61173
G1 X89.5 Y122.624 E20.61714
G1 X89.669 Y122.508 E20.6226
G1 X89.963 Y122.266 E20.63273
G1 X90.221 Y121.988 E20.64282
G1 X90.354 Y121.822 E20.64848
G1 X90.556 Y121.5 E20.6586
G1 X90.674 Y121.258 E20.66576
G1 X90.767 Y121.026 E20.67241
G1 X90.845 Y120.767 E20.67961
G1 X90.906 Y120.461 E20.68791
G1 X90.934 Y120.194 E20.69505
G1 X90.94 Y119.988 E20.70054
G1 X90.925 Y119.687 E20.70856
G1 X90.889 Y119.42 E20.71572
G1 X90.787 Y119.036 E20.7263
G1 X90.715 Y118.839 E20.73188
G1 X90.613 Y118.616 E20.7384
G1 X90.522 Y118.446 E20.74353
G1 X90.419 Y118.278 E20.74878
G1 X90.274 Y118.076 E20.75539
G1 X90.116 Y117.892 E20.76185
G1 X89.961 Y117.735 E20.76772
G1 X89.791 Y117.587 E20.77371
G1 X89.628 Y117.466 E20.77912
G1 X89.395 Y117.315 E20.7865
G1 X89.162 Y117.192 E20.79351
G1 X88.976 Y117.111 E20.79891
G1 X88.755 Y117.034 E20.80514
G1 X88.559 Y116.979 E20.81056
G1 X88.297 Y116.928 E20.81766
G1 X88.081 Y116.904 E20.82344
G1 X87.839 Y116.895 E20.82988
G1 X87.635 Y116.9 E20.83531
G1 X87.379 Y116.929 E20.84217
G1 X87.179 Y116.965 E20.84758
G1 X86.944 Y117.025 E20.85403
G1 X86.756 Y117.089 E20.85931
G1 X86.509 Y117.19 E20.86641
G1 X86.177 Y117.372 E20.87649
G1 X86.004 Y117.491 E20.88208
G1 X85.772 Y117.678 E20.89
G1 X85.477 Y118.036 E20.90235
G1 X85.358 Y118.214 E20.90804
G1 X85.241 Y118.421 E20.91437
G1 X85.13 Y118.663 E20.92146
G1 X85.066 Y118.838 E20.92641
G1 X84.985 Y119.115 E20.93409
G1 X84.917 Y119.465 E20.94358
G1 X84.888 Y119.659 E20.9488
G1 X84.872 Y119.86 E20.95416
G1 X84.87 Y120.062 E20.95954
G1 X84.881 Y120.263 E20.9649
G1 X84.906 Y120.464 E20.97028
G1 X84.944 Y120.661 E20.97562
G1 X84.995 Y120.859 E20.98106
G1 X85.08 Y121.106 E20.98801
G1 X85.227 Y121.413 E20.99707
G1 X85.388 Y121.707 E21.00599
G1 X85.49 Y121.868 E21.01106
G1 X85.607 Y122.029 E21.01636
G1 X85.85 Y122.301 E21.02606
G1 X86.002 Y122.442 E21.03158
G1 X86.155 Y122.563 E21.03677
G1 X86.275 Y122.682 E21.04127
M205 X15 Y15
G0 F3000 X86.512 Y122.354
M205 X10 Y10
;TYPE:WALL-OUTER
G1 F600 X86.797 Y122.5 E21.04979
G1 X86.997 Y122.573 E21.05545
G1 X87.161 Y122.622 E21.06
G1 X87.328 Y122.658 E21.06455
G1 X87.496 Y122.684 E21.06907
G1 X87.663 Y122.701 E21.07354
G1 X87.835 Y122.706 E21.07812
G1 X88.01 Y122.701 E21.08278
G1 X88.339 Y122.659 E21.0916
G1 X88.512 Y122.621 E21.09632
G1 X88.832 Y122.517 E21.10527
G1 X89.137 Y122.374 E21.11423
G1 X89.285 Y122.286 E21.11881
G1 X89.429 Y122.188 E21.12345
G1 X89.688 Y121.974 E21.13239
G1 X89.918 Y121.727 E21.14137
G1 X90.027 Y121.59 E21.14603
G1 X90.206 Y121.305 E21.15498
G1 X90.308 Y121.096 E21.16117
G1 X90.389 Y120.894 E21.16696
G1 X90.456 Y120.67 E21.17318
G1 X90.51 Y120.4 E21.18051
G1 X90.535 Y120.167 E21.18674
G1 X90.54 Y119.993 E21.19137
G1 X90.526 Y119.724 E21.19854
G1 X90.496 Y119.498 E21.20461
G1 X90.405 Y119.156 E21.21402
G1 X90.345 Y118.991 E21.2187
G1 X90.255 Y118.794 E21.22446
G1 X90.175 Y118.645 E21.22896
G1 X90.086 Y118.5 E21.23349
G1 X89.959 Y118.323 E21.23928
G1 X89.822 Y118.163 E21.24489
G1 X89.687 Y118.027 E21.24999
G1 X89.54 Y117.899 E21.25517
G1 X89.4 Y117.795 E21.25981
G1 X89.192 Y117.66 E21.26641
G1 X88.989 Y117.553 E21.27252
G1 X88.83 Y117.484 E21.27713
G1 X88.635 Y117.416 E21.28262
G1 X88.467 Y117.369 E21.28727
G1 X88.236 Y117.324 E21.29353
G1 X88.051 Y117.303 E21.29848
G1 X87.836 Y117.295 E21.30421
G1 X87.663 Y117.299 E21.30881
G1 X87.437 Y117.325 E21.31486
G1 X87.264 Y117.356 E21.31954
G1 X87.058 Y117.409 E21.3252
G1 X86.896 Y117.464 E21.32975
G1 X86.681 Y117.552 E21.33593
G1 X86.387 Y117.713 E21.34485
G1 X86.243 Y117.812 E21.3495
G1 X86.055 Y117.964 E21.35594
G1 X85.798 Y118.275 E21.36667
G1 X85.699 Y118.423 E21.37141
G1 X85.598 Y118.603 E21.3769
G1 X85.5 Y118.816 E21.38314
G1 X85.446 Y118.963 E21.38731
G1 X85.374 Y119.21 E21.39415
G1 X85.311 Y119.532 E21.40288
G1 X85.286 Y119.704 E21.40751
G1 X85.272 Y119.878 E21.41215
G1 X85.27 Y120.053 E21.41681
G1 X85.28 Y120.228 E21.42147
G1 X85.301 Y120.402 E21.42614
G1 X85.334 Y120.573 E21.43077
G1 X85.378 Y120.743 E21.43544
G1 X85.451 Y120.954 E21.44138
G1 X85.583 Y121.231 E21.44955
G1 X85.733 Y121.504 E21.45784
G1 X85.821 Y121.643 E21.46221
G1 X85.919 Y121.778 E21.46665
G1 X86.136 Y122.021 E21.47532
G1 X86.262 Y122.138 E21.47989
G1 X86.416 Y122.259 E21.48511
G1 X86.512 Y122.354 E21.4887
M205 X15 Y15
G0 F3000 X86.69 Y122.445
G0 X86.49 Y122.836
G0 X86.462 Y122.889
G0 X85.576 Y122.054
G0 X85.043 Y121.121
G0 X84.842 Y120.266
