; generated by Slic3r Prusa Edition 1.41.2 on 2019-05-25 at 03:28:54

; 

; external perimeters extrusion width = 0.40mm
; perimeters extrusion width = 0.40mm
; infill extrusion width = 0.40mm
; solid infill extrusion width = 0.40mm
; top infill extrusion width = 0.40mm
; first layer extrusion width = 0.40mm

M201 X5000 Y5000 Z50 E5000 ; sets maximum accelerations, mm/sec^2
M203 X400 Y400 Z8 E45 ; sets maximum feedrates, mm/sec
M204 P2000 R2000 T2000 ; sets acceleration (P, T) and retract acceleration (R), mm/sec^2
M205 X10.00 Y10.00 Z0.20 E2.50 ; sets the jerk limits, mm/sec
M205 S0 T0 ; sets the minimum extruding and travel feed rate, mm/sec
M107
; Custom Start G-code
M117 Preheating ...; preheating message display
M140 S60; set the temperature of the bed in relation to the parameters of the slicer
M105
M190 S60; Wait for bed temperature
M104 S215;  define the extruder temperature in relation to the parameters of the slicer
M105
M109 R215; once the temperature has been set, wait for the right temperature
M105
M80 192.168.1.27 1
G28 ; Moving to origins
; G29 ; autolevel
G92 E0 ; Reset Extruder
G1 Z2.0 F3000 ; Move Z Axis up little to prevent scratching of Heat Bed
;G1 X0.2 Y20 Z0.3 F5000.0 ; Move to start position
;G1 X0.2 Y200.0 Z0.2 F1500.0 E15 ; Draw the first line
;G1 X1.2 Y200.0 Z0.2 F3000.0 ; Move to side a little
;G1 X1.2 Y20 Z0.3 F1500.0 E20 ; Draw the second line
;G92 E0 ; Reset Extruder
;G1 Z2.0 F3000 ; Move Z Axis up little to prevent scratching of Heat Bed
G92 E0 ; Reset Extruder
; End of custom start G-code
; Filament gcode
G21 ; set units to millimeters
G90 ; use absolute coordinates
M82 ; use absolute distances for extrusion
G92 E0
G1 Z0.160 F7800.000
G1 E-6.00000 F2700.00000
G92 E0
G1 Z2.160 F7800.000
G1 X83.846 Y84.871
G1 Z0.160
G1 E6.00000 F2700.00000
G1 F1080
G1 X85.009 Y83.734 E6.03956
G1 X86.377 Y82.855 E6.07912
G1 X87.895 Y82.270 E6.11869
G1 X89.500 Y82.004 E6.15825
G1 X130.007 Y81.989 E7.14355
G1 X131.453 Y82.122 E7.17888
G1 X132.858 Y82.516 E7.21438
G1 X134.163 Y83.155 E7.24971
G1 X135.330 Y84.019 E7.28504
G1 X136.322 Y85.080 E7.32037
G1 X137.107 Y86.303 E7.35570
G1 X137.658 Y87.647 E7.39103
G1 X137.958 Y89.075 E7.42653
G1 X138.011 Y89.989 E7.44880
G1 X138.005 Y130.315 E8.42968
G1 X137.846 Y131.618 E8.46163
G1 X137.476 Y132.878 E8.49357
G1 X136.909 Y134.055 E8.52534
G1 X136.154 Y135.129 E8.55728
G1 X134.925 Y136.318 E8.59887
G1 X133.472 Y137.220 E8.64046
G1 X131.861 Y137.792 E8.68205
G1 X130.158 Y138.010 E8.72382
G1 X89.671 Y138.004 E9.70861
G1 X88.375 Y137.845 E9.74038
G1 X87.122 Y137.476 E9.77216
G1 X85.945 Y136.909 E9.80393
G1 X84.871 Y136.154 E9.83587
G1 X83.682 Y134.925 E9.87746
G1 X82.780 Y133.472 E9.91905
G1 X82.208 Y131.861 E9.96064
G1 X81.990 Y130.158 E10.00241
G1 X81.996 Y89.671 E10.98720
G1 X82.155 Y88.375 E11.01897
G1 X82.524 Y87.122 E11.05075
G1 X83.091 Y85.945 E11.08252
G1 X83.811 Y84.920 E11.11300
G1 X85.257 Y84.004 F7800.000
G1 F1080
G1 X86.562 Y83.171 E11.15065
G1 X88.008 Y82.619 E11.18831
G1 X89.542 Y82.368 E11.22613
G1 X130.007 Y82.355 E12.21039
G1 X131.393 Y82.482 E12.24424
G1 X132.732 Y82.859 E12.27809
G1 X133.981 Y83.473 E12.31194
G1 X135.098 Y84.303 E12.34579
G1 X136.047 Y85.321 E12.37964
G1 X136.795 Y86.495 E12.41349
G1 X137.317 Y87.784 E12.44734
G1 X137.599 Y89.154 E12.48135
G1 X137.640 Y130.294 E13.48203
G1 X137.489 Y131.540 E13.51257
G1 X137.133 Y132.751 E13.54327
G1 X136.583 Y133.888 E13.57398
G1 X135.854 Y134.918 E13.60468
G1 X134.679 Y136.047 E13.64432
G1 X133.291 Y136.901 E13.68396
G1 X131.754 Y137.442 E13.72359
G1 X130.137 Y137.644 E13.76323
G1 X89.700 Y137.640 E14.74683
G1 X88.453 Y137.487 E14.77737
G1 X87.242 Y137.131 E14.80808
G1 X86.112 Y136.583 E14.83862
G1 X85.082 Y135.854 E14.86932
G1 X83.953 Y134.679 E14.90896
G1 X83.099 Y133.291 E14.94860
G1 X82.558 Y131.754 E14.98823
G1 X82.356 Y130.137 E15.02787
G1 X82.360 Y89.700 E16.01147
G1 X82.513 Y88.453 E16.04201
G1 X82.869 Y87.242 E16.07272
G1 X83.417 Y86.112 E16.10326
G1 X84.146 Y85.082 E16.13396
G1 X85.214 Y84.046 E16.17015
G1 X85.468 Y84.310 F7800.000
G1 F1080
G1 X86.755 Y83.483 E16.20737
G1 X88.131 Y82.964 E16.24314
G1 X89.590 Y82.732 E16.27907
G1 X130.007 Y82.720 E17.26216
G1 X131.326 Y82.842 E17.29438
G1 X132.607 Y83.203 E17.32677
G1 X133.801 Y83.791 E17.35915
G1 X134.868 Y84.588 E17.39153
G1 X135.769 Y85.559 E17.42375
G1 X136.481 Y86.684 E17.45613
G1 X136.976 Y87.920 E17.48852
G1 X137.238 Y89.225 E17.52090
G1 X137.275 Y130.267 E18.51920
G1 X137.130 Y131.470 E18.54867
G1 X136.787 Y132.632 E18.57815
G1 X136.257 Y133.721 E18.60762
G1 X135.557 Y134.703 E18.63694
G1 X134.441 Y135.769 E18.67448
G1 X133.119 Y136.578 E18.71219
G1 X131.662 Y137.088 E18.74973
G1 X130.123 Y137.279 E18.78744
G1 X89.720 Y137.274 E19.77021
G1 X88.524 Y137.129 E19.79952
G1 X87.368 Y136.787 E19.82884
G1 X86.279 Y136.257 E19.85831
G1 X85.297 Y135.557 E19.88763
G1 X84.231 Y134.441 E19.92517
G1 X83.422 Y133.119 E19.96288
G1 X82.912 Y131.662 E20.00042
G1 X82.721 Y130.123 E20.03813
G1 X82.726 Y89.720 E21.02090
G1 X82.871 Y88.524 E21.05021
G1 X83.213 Y87.368 E21.07953
G1 X83.743 Y86.279 E21.10900
G1 X84.443 Y85.297 E21.13831
G1 X85.425 Y84.351 E21.17148
G1 X85.678 Y84.615 F7800.000
G1 F1080
G1 X85.749 Y84.547 E21.17387
G1 X86.935 Y83.802 E21.20794
G1 X88.247 Y83.312 E21.24201
G1 X89.631 Y83.096 E21.27609
G1 X130.006 Y83.086 E22.25819
G1 X131.266 Y83.203 E22.28896
G1 X132.489 Y83.550 E22.31988
G1 X133.623 Y84.111 E22.35065
G1 X134.635 Y84.870 E22.38142
G1 X135.492 Y85.800 E22.41219
G1 X136.166 Y86.871 E22.44296
G1 X136.632 Y88.047 E22.47373
G1 X136.878 Y89.294 E22.50466
G1 X136.910 Y130.247 E23.50080
G1 X136.772 Y131.394 E23.52889
G1 X136.446 Y132.501 E23.55698
G1 X135.936 Y133.545 E23.58523
G1 X135.263 Y134.484 E23.61333
G1 X134.200 Y135.492 E23.64897
G1 X132.948 Y136.254 E23.68462
G1 X131.564 Y136.735 E23.72026
G1 X130.110 Y136.913 E23.75590
G1 X89.747 Y136.910 E24.73769
G1 X88.600 Y136.771 E24.76578
G1 X87.492 Y136.443 E24.79388
G1 X86.455 Y135.936 E24.82197
G1 X85.516 Y135.263 E24.85007
G1 X84.508 Y134.200 E24.88571
G1 X83.746 Y132.948 E24.92135
G1 X83.265 Y131.564 E24.95700
G1 X83.087 Y130.110 E24.99264
G1 X83.090 Y89.747 E25.97443
G1 X83.229 Y88.600 E26.00252
G1 X83.557 Y87.492 E26.03062
G1 X84.064 Y86.455 E26.05871
G1 X84.737 Y85.516 E26.08680
G1 X85.634 Y84.657 E26.11703
G1 X85.886 Y84.921 F7800.000
G1 F1080
G1 X85.988 Y84.824 E26.12045
G1 X87.112 Y84.123 E26.15269
G1 X88.355 Y83.662 E26.18493
G1 X89.665 Y83.460 E26.21717
G1 X130.006 Y83.452 E27.19844
G1 X131.207 Y83.564 E27.22777
G1 X132.361 Y83.892 E27.25694
G1 X133.441 Y84.428 E27.28627
G1 X134.404 Y85.153 E27.31560
G1 X135.214 Y86.038 E27.34478
G1 X135.852 Y87.061 E27.37411
G1 X136.290 Y88.178 E27.40329
G1 X136.517 Y89.362 E27.43262
G1 X136.545 Y130.228 E28.42663
G1 X136.414 Y131.319 E28.45336
G1 X136.101 Y132.378 E28.48024
G1 X135.615 Y133.370 E28.50711
G1 X134.968 Y134.266 E28.53399
G1 X133.962 Y135.214 E28.56761
G1 X132.779 Y135.929 E28.60122
G1 X131.473 Y136.381 E28.63484
G1 X130.095 Y136.548 E28.66861
G1 X89.766 Y136.544 E29.64957
G1 X88.675 Y136.413 E29.67630
G1 X87.616 Y136.099 E29.70318
G1 X86.630 Y135.615 E29.72990
G1 X85.734 Y134.968 E29.75678
G1 X84.786 Y133.962 E29.79040
G1 X84.071 Y132.779 E29.82401
G1 X83.619 Y131.473 E29.85763
G1 X83.452 Y130.095 E29.89139
G1 X83.456 Y89.766 E30.87236
G1 X83.587 Y88.675 E30.89908
G1 X83.901 Y87.616 E30.92596
G1 X84.385 Y86.630 E30.95269
G1 X85.032 Y85.734 E30.97957
G1 X85.842 Y84.963 E31.00677
G1 X86.235 Y85.096 F7800.000
G1 F1080
G1 X87.299 Y84.438 E31.03720
G1 X88.468 Y84.010 E31.06748
G1 X89.705 Y83.824 E31.09791
G1 X130.006 Y83.817 E32.07819
G1 X131.136 Y83.922 E32.10580
G1 X132.234 Y84.235 E32.13355
G1 X133.255 Y84.743 E32.16130
G1 X134.165 Y85.431 E32.18906
G1 X134.934 Y86.274 E32.21681
G1 X135.535 Y87.244 E32.24456
G1 X135.947 Y88.308 E32.27231
G1 X136.156 Y89.430 E32.30007
G1 X136.179 Y130.209 E33.29198
G1 X136.055 Y131.251 E33.31750
G1 X135.756 Y132.256 E33.34302
G1 X135.292 Y133.197 E33.36854
G1 X134.671 Y134.051 E33.39421
G1 X133.721 Y134.938 E33.42583
G1 X132.606 Y135.607 E33.45745
G1 X131.377 Y136.028 E33.48907
G1 X130.080 Y136.182 E33.52084
G1 X89.791 Y136.179 E34.50082
G1 X88.749 Y136.055 E34.52634
G1 X87.744 Y135.756 E34.55186
G1 X86.803 Y135.292 E34.57738
G1 X85.949 Y134.671 E34.60305
G1 X85.062 Y133.721 E34.63467
G1 X84.393 Y132.606 E34.66629
G1 X83.972 Y131.377 E34.69791
G1 X83.818 Y130.080 E34.72968
G1 X83.821 Y89.791 E35.70966
G1 X83.945 Y88.749 E35.73518
G1 X84.244 Y87.744 E35.76070
G1 X84.708 Y86.803 E35.78622
G1 X85.329 Y85.949 E35.81189
G1 X86.191 Y85.137 E35.84071
; PURGING FINISHED
G1 E29.84071 F2700.00000
G92 E0
G1 Z2.160 F7800.000
G1 X98.770 Y116.894
G1 Z0.160
G1 E6.00000 F2700.00000
G1 F216
G1 X99.371 Y116.719 E6.01521
G1 X99.913 Y116.664 E6.02848
G1 X100.217 Y116.669 E6.03588
G1 X100.640 Y116.722 E6.04625
G1 X101.230 Y116.894 E6.06118
G1 X101.790 Y117.179 E6.07648
G1 X102.276 Y117.555 E6.09142
G1 X102.572 Y117.871 E6.10195
G1 X102.818 Y118.208 E6.11210
G1 X103.106 Y118.768 E6.12742
G1 X103.282 Y119.374 E6.14276
G1 X103.341 Y120.000 E6.15805
G1 X103.282 Y120.626 E6.17335
G1 X103.106 Y121.230 E6.18864
G1 X102.828 Y121.777 E6.20358
G1 X102.573 Y122.128 E6.21414
G1 X102.276 Y122.445 E6.22469
G1 X101.790 Y122.821 E6.23963
G1 X101.230 Y123.106 E6.25493
G1 X100.626 Y123.282 E6.27022
G1 X100.000 Y123.341 E6.28552
G1 X99.374 Y123.282 E6.30082
G1 X98.748 Y123.100 E6.31667
G1 X98.321 Y122.856 E6.32863
G1 X97.847 Y122.465 E6.34358
G1 X97.462 Y121.999 E6.35828
G1 X97.188 Y121.524 E6.37161
G1 X97.018 Y121.165 E6.38128
G1 X96.854 Y120.600 E6.39558
G1 X96.798 Y120.000 E6.41024
G1 X96.850 Y119.443 E6.42386
G1 X96.921 Y119.076 E6.43295
G1 X97.034 Y118.686 E6.44282
G1 X97.291 Y118.140 E6.45751
G1 X97.649 Y117.649 E6.47229
G1 X97.858 Y117.438 E6.47951
G1 X98.223 Y117.172 E6.49049
G1 X98.717 Y116.921 E6.50396
G1 X98.883 Y117.247 F7800.000
G1 F216
G1 X99.441 Y117.080 E6.51813
G1 X99.929 Y117.030 E6.53007
G1 X100.191 Y117.034 E6.53645
G1 X100.566 Y117.081 E6.54564
G1 X101.095 Y117.235 E6.55903
G1 X101.593 Y117.489 E6.57265
G1 X102.029 Y117.827 E6.58604
G1 X102.290 Y118.105 E6.59533
G1 X102.506 Y118.401 E6.60423
G1 X102.765 Y118.904 E6.61800
G1 X102.921 Y119.443 E6.63165
G1 X102.974 Y120.000 E6.64526
G1 X102.921 Y120.557 E6.65887
G1 X102.765 Y121.095 E6.67248
G1 X102.515 Y121.585 E6.68589
G1 X102.290 Y121.895 E6.69518
G1 X102.029 Y122.173 E6.70448
G1 X101.593 Y122.511 E6.71788
G1 X101.095 Y122.765 E6.73149
G1 X100.557 Y122.921 E6.74510
G1 X100.000 Y122.974 E6.75872
G1 X99.443 Y122.921 E6.77233
G1 X98.892 Y122.761 E6.78629
G1 X98.530 Y122.554 E6.79643
G1 X98.107 Y122.205 E6.80977
G1 X97.763 Y121.789 E6.82289
G1 X97.512 Y121.355 E6.83510
G1 X97.361 Y121.035 E6.84369
G1 X97.215 Y120.531 E6.85645
G1 X97.165 Y120.000 E6.86943
G1 X97.213 Y119.495 E6.88178
G1 X97.277 Y119.162 E6.89003
G1 X97.377 Y118.815 E6.89880
G1 X97.607 Y118.327 E6.91193
G1 X97.928 Y117.886 E6.92519
G1 X98.097 Y117.716 E6.93102
G1 X98.415 Y117.485 E6.94057
G1 X98.829 Y117.274 E6.95189
G1 X98.336 Y117.994 F7800.000
G1 F216
G1 X98.606 Y117.798 E6.96002
G1 X99.041 Y117.577 E6.97187
G1 X99.511 Y117.440 E6.98379
G1 X99.944 Y117.396 E6.99439
G1 X100.165 Y117.399 E6.99976
G1 X100.491 Y117.441 E7.00776
G1 X100.959 Y117.577 E7.01961
G1 X101.397 Y117.799 E7.03155
G1 X101.782 Y118.098 E7.04340
G1 X102.008 Y118.339 E7.05143
G1 X102.193 Y118.593 E7.05910
G1 X102.423 Y119.040 E7.07132
G1 X102.560 Y119.512 E7.08326
G1 X102.606 Y120.000 E7.09519
G1 X102.560 Y120.488 E7.10713
G1 X102.423 Y120.959 E7.11906
G1 X102.202 Y121.394 E7.13092
G1 X102.008 Y121.661 E7.13895
G1 X101.782 Y121.902 E7.14699
G1 X101.397 Y122.201 E7.15885
G1 X100.959 Y122.423 E7.17078
G1 X100.488 Y122.560 E7.18271
G1 X100.000 Y122.606 E7.19464
G1 X99.512 Y122.560 E7.20658
G1 X99.036 Y122.422 E7.21863
G1 X98.739 Y122.252 E7.22696
G1 X98.367 Y121.945 E7.23869
G1 X98.065 Y121.579 E7.25022
G1 X97.836 Y121.185 E7.26131
G1 X97.705 Y120.905 E7.26883
G1 X97.576 Y120.462 E7.28005
G1 X97.532 Y120.000 E7.29135
G1 X97.575 Y119.547 E7.30242
G1 X97.633 Y119.247 E7.30984
G1 X97.720 Y118.945 E7.31750
G1 X97.923 Y118.514 E7.32908
G1 X98.208 Y118.124 E7.34082
G1 X98.294 Y118.037 E7.34380
G1 X98.271 Y117.666 F7800.000
G1 E1.34380 F2700.00000
G92 E0
G1 Z2.160 F7800.000
G1 X116.798 Y120.000
G1 Z0.160
G1 E6.00000 F2700.00000
G1 F216
G1 X116.850 Y119.443 E6.01362
G1 X116.921 Y119.076 E6.02270
G1 X117.034 Y118.686 E6.03258
G1 X117.291 Y118.140 E6.04727
G1 X117.649 Y117.649 E6.06204
G1 X117.858 Y117.438 E6.06926
G1 X118.223 Y117.172 E6.08024
G1 X118.770 Y116.894 E6.09518
G1 X119.371 Y116.719 E6.11039
G1 X119.913 Y116.664 E6.12366
G1 X120.217 Y116.669 E6.13106
G1 X120.640 Y116.722 E6.14142
G1 X121.230 Y116.894 E6.15636
G1 X121.790 Y117.179 E6.17165
G1 X122.275 Y117.555 E6.18659
G1 X122.572 Y117.871 E6.19713
G1 X122.818 Y118.208 E6.20728
G1 X123.106 Y118.768 E6.22259
G1 X123.282 Y119.374 E6.23794
G1 X123.341 Y120.000 E6.25323
G1 X123.282 Y120.626 E6.26853
G1 X123.106 Y121.230 E6.28382
G1 X122.821 Y121.790 E6.29912
G1 X122.445 Y122.276 E6.31406
G1 X122.128 Y122.573 E6.32461
G1 X121.777 Y122.828 E6.33517
G1 X121.230 Y123.106 E6.35011
G1 X120.626 Y123.282 E6.36540
G1 X120.000 Y123.341 E6.38070
G1 X119.374 Y123.282 E6.39599
G1 X118.748 Y123.100 E6.41185
G1 X118.321 Y122.856 E6.42381
G1 X117.847 Y122.465 E6.43875
G1 X117.462 Y121.999 E6.45346
G1 X117.188 Y121.524 E6.46679
G1 X117.018 Y121.165 E6.47646
G1 X116.854 Y120.600 E6.49076
G1 X116.803 Y120.060 E6.50396
G1 X117.167 Y120.025 F7800.000
G1 F216
G1 X117.213 Y119.495 E6.51692
G1 X117.277 Y119.162 E6.52517
G1 X117.377 Y118.815 E6.53394
G1 X117.607 Y118.327 E6.54707
G1 X117.928 Y117.886 E6.56033
G1 X118.097 Y117.716 E6.56616
G1 X118.415 Y117.485 E6.57571
G1 X118.905 Y117.235 E6.58911
G1 X119.441 Y117.080 E6.60267
G1 X119.929 Y117.030 E6.61461
G1 X120.191 Y117.034 E6.62099
G1 X120.566 Y117.081 E6.63017
G1 X121.095 Y117.235 E6.64357
G1 X121.593 Y117.489 E6.65718
G1 X122.029 Y117.827 E6.67058
G1 X122.290 Y118.105 E6.67987
G1 X122.506 Y118.401 E6.68877
G1 X122.765 Y118.904 E6.70254
G1 X122.921 Y119.443 E6.71618
G1 X122.974 Y120.000 E6.72980
G1 X122.921 Y120.557 E6.74341
G1 X122.765 Y121.095 E6.75702
G1 X122.511 Y121.593 E6.77064
G1 X122.173 Y122.029 E6.78404
G1 X121.895 Y122.290 E6.79333
G1 X121.585 Y122.515 E6.80263
G1 X121.095 Y122.765 E6.81603
G1 X120.557 Y122.921 E6.82964
G1 X120.000 Y122.974 E6.84325
G1 X119.443 Y122.921 E6.85687
G1 X118.892 Y122.761 E6.87082
G1 X118.530 Y122.554 E6.88097
G1 X118.107 Y122.205 E6.89430
G1 X117.763 Y121.789 E6.90742
G1 X117.512 Y121.355 E6.91963
G1 X117.361 Y121.035 E6.92823
G1 X117.215 Y120.531 E6.94099
G1 X117.173 Y120.085 E6.95189
G1 X117.537 Y120.051 F7800.000
G1 F216
G1 X117.575 Y119.547 E6.96418
G1 X117.633 Y119.247 E6.97160
G1 X117.720 Y118.945 E6.97926
G1 X117.923 Y118.514 E6.99084
G1 X118.208 Y118.124 E7.00258
G1 X118.336 Y117.994 E7.00702
G1 X118.606 Y117.798 E7.01515
G1 X119.041 Y117.577 E7.02700
G1 X119.511 Y117.440 E7.03892
G1 X119.944 Y117.396 E7.04952
G1 X120.165 Y117.399 E7.05489
G1 X120.491 Y117.441 E7.06289
G1 X120.959 Y117.577 E7.07474
G1 X121.397 Y117.799 E7.08667
G1 X121.782 Y118.098 E7.09853
G1 X122.008 Y118.339 E7.10656
G1 X122.193 Y118.593 E7.11423
G1 X122.423 Y119.040 E7.12645
G1 X122.560 Y119.512 E7.13839
G1 X122.606 Y120.000 E7.15032
G1 X122.560 Y120.488 E7.16226
G1 X122.423 Y120.959 E7.17419
G1 X122.201 Y121.397 E7.18612
G1 X121.902 Y121.782 E7.19798
G1 X121.661 Y122.008 E7.20601
G1 X121.394 Y122.202 E7.21405
G1 X120.959 Y122.423 E7.22591
G1 X120.488 Y122.560 E7.23784
G1 X120.000 Y122.606 E7.24977
G1 X119.512 Y122.560 E7.26171
G1 X119.036 Y122.422 E7.27376
G1 X118.739 Y122.252 E7.28209
G1 X118.367 Y121.945 E7.29382
G1 X118.065 Y121.579 E7.30535
G1 X117.836 Y121.185 E7.31644
G1 X117.705 Y120.905 E7.32396
G1 X117.576 Y120.462 E7.33517
G1 X117.543 Y120.110 E7.34378
G1 X117.188 Y119.856 F7800.000
G1 E1.34378 F2700.00000
G92 E0
G1 Z2.160 F7800.000
G1 X118.748 Y103.100
G1 Z0.160
G1 E6.00000 F2700.00000
G1 F216
G1 X118.321 Y102.856 E6.01196
G1 X117.847 Y102.465 E6.02690
G1 X117.462 Y101.999 E6.04161
